X: 11078
T: Duchess, The
R: reel
M: 4/4
K: Amajor
|:A2AA ABce|zcef fecB|A2AA ecAG|zGGA BAAB|
A2AA ABce|zcef fece|a2 ge fecB|zBBA B/c/eBc:|
|:f2fe fage|zeec fece|f2fe fagc|zccB c/d/eBA|
f2fe fage|zeec fece|a2 ge fecB|zBBA B/c/eBc:|

